dist/assets/img/first-screen/rocket.svg

<svg width="40" height="40" viewBox="0 0 40 40" fill="none" xmlns="http://www.w3.org/2000/svg">
<path d="M37.4451 0.00432533C33.9528 0.208098 27.6665 0.806671 24.7949 2.53157C21.1051 4.74845 17.4642 8.91021 14.5266 12.9049L8.66715 13.671C7.5367 13.819 6.55238 14.5609 6.09906 15.6069L4.72492 18.7779C4.61587 19.029 4.62833 19.3156 4.75795 19.5559C4.88757 19.7967 5.12033 19.965 5.38923 20.0123L9.38251 20.7181C9.08587 21.22 8.83256 21.6584 8.63345 22.0095C8.10001 22.9492 8.26235 24.1398 9.02792 24.9054L9.25071 25.1281L8.3038 26.075C7.35003 27.0291 7.35003 28.5817 8.3038 29.5364L10.4634 31.6965C10.9258 32.1589 11.5402 32.4129 12.1943 32.4129C12.8477 32.4129 13.4624 32.1583 13.9248 31.6959L14.8714 30.7494L15.0942 30.9721C15.5513 31.4292 16.1576 31.6807 16.802 31.6807C17.2173 31.6807 17.628 31.5722 17.9901 31.3666C18.3413 31.1675 18.779 30.9145 19.281 30.6176L19.9868 34.6107C20.0341 34.8799 20.2024 35.1127 20.4433 35.242C20.5751 35.313 20.7206 35.3488 20.8664 35.3488C20.987 35.3488 21.1082 35.3242 21.2216 35.275L24.3927 33.9015C25.4386 33.4482 26.1809 32.4642 26.3286 31.3335L27.0948 25.4743C31.09 22.5364 35.2517 18.8959 37.4684 15.2063C39.1937 12.3351 39.7926 6.04859 39.9958 2.55652C40.0347 1.88476 39.8023 1.246 39.3417 0.757123C38.8566 0.241776 38.1652 -0.0373976 37.4448 0.00403976L37.4451 0.00432533ZM6.81473 18.4505L7.7389 16.3178C7.94362 15.8452 8.38794 15.5102 8.89895 15.4432L13.1094 14.893C12.0594 16.4116 11.1355 17.8477 10.3743 19.0803L6.81473 18.4505ZM12.6632 30.4327C12.4136 30.6823 11.978 30.6823 11.7287 30.4327L9.56915 28.2732C9.31146 28.0155 9.31146 27.5961 9.56915 27.3387L10.5161 26.3922L13.6104 29.4865L12.6632 30.4327ZM24.5588 31.1029C24.4918 31.6139 24.1569 32.0582 23.6842 32.2629L21.5514 33.187L20.922 29.6276C22.154 28.867 23.5904 27.9426 25.1094 26.8926L24.5588 31.1029ZM35.9383 14.287C31.8472 21.0963 20.4923 27.8924 17.1094 29.8139C16.8692 29.9498 16.5545 29.9049 16.3591 29.7098L15.5054 28.8564C15.505 28.8561 15.505 28.8555 15.5044 28.8552L11.1465 24.4975C11.1462 24.4971 11.1456 24.4971 11.1453 24.4965L10.2916 23.6428C10.0928 23.4437 10.0494 23.1349 10.1875 22.8925C12.1081 19.5097 18.9052 8.15533 25.7148 4.06424C28.353 2.47925 34.8696 1.94491 37.5873 1.78753C37.7615 1.78753 37.9238 1.85764 38.0438 1.98445C38.1634 2.11126 38.2239 2.27796 38.2136 2.45338C38.0575 5.13329 37.5234 11.6494 35.9384 14.2872L35.9383 14.287Z" fill="white"/>
<path d="M28.8376 6.51172C27.5943 6.51172 26.426 6.99566 25.5465 7.87403C23.7325 9.68769 23.7325 12.6388 25.5465 14.4517C26.4254 15.3301 27.5939 15.814 28.837 15.814C30.0797 15.814 31.2485 15.3304 32.1274 14.4517C33.942 12.6381 33.942 9.68761 32.1274 7.87371C31.2495 6.99498 30.0809 6.51172 28.8376 6.51172ZM30.8545 13.178C30.3156 13.7166 29.5995 14.0128 28.8379 14.0128C28.0763 14.0128 27.3599 13.7166 26.8213 13.178C25.7097 12.0663 25.7097 10.2583 26.8213 9.14687C27.3602 8.60827 28.0763 8.31211 28.8379 8.31211C29.5995 8.31211 30.316 8.60826 30.8545 9.14687C31.9665 10.2583 31.9665 12.0669 30.8545 13.178Z" fill="white"/>
<path d="M5.27898 29.7676C3.95588 29.7676 2.71186 30.283 1.77633 31.2187C0.0137625 32.9811 -0.0115049 38.1058 0.00160854 39.1151C0.00785543 39.6006 0.400162 39.993 0.885888 39.9995L1.01083 40.0001C2.81369 40.0001 7.17936 39.8274 8.78168 38.2249C9.71714 37.2893 10.2326 36.0454 10.2326 34.7218C10.2326 33.3985 9.71719 32.1543 8.78168 31.2186C7.84623 30.2834 6.6024 29.7676 5.27898 29.7676ZM7.51539 36.9581C6.7439 37.7297 4.1549 38.1239 1.80231 38.1963C1.86915 36.0437 2.25147 33.2763 3.0433 32.485C3.6405 31.8877 4.43444 31.5588 5.27938 31.5588C6.12432 31.5588 6.91825 31.8874 7.51547 32.485C8.11268 33.0823 8.44157 33.8763 8.44157 34.7214C8.44126 35.5663 8.11259 36.3605 7.51539 36.9581Z" fill="white"/>
</svg>

<svg width="40" height="40" fill="none" xmlns="http://www.w3.org/2000/svg"><path d="M37.445.004c-3.492.204-9.779.803-12.65 2.528-3.69 2.216-7.33 6.378-10.268 10.373l-5.86.766A3.276 3.276 0 006.1 15.607l-1.374 3.17a.89.89 0 00.664 1.235l3.994.706c-.297.502-.55.94-.75 1.291a2.42 2.42 0 00.395 2.896l.223.223-.947.947a2.451 2.451 0 000 3.461l2.16 2.16a2.43 2.43 0 001.73.717 2.43 2.43 0 001.73-.717l.947-.947.223.223a2.41 2.41 0 002.896.394c.351-.198.789-.451 1.291-.748l.706 3.993a.892.892 0 001.235.664l3.17-1.373a3.275 3.275 0 001.937-2.569l.766-5.859c3.995-2.938 8.157-6.578 10.373-10.268 1.726-2.87 2.325-9.157 2.528-12.65A2.41 2.41 0 0037.445.005zM6.815 18.451l.924-2.133a1.48 1.48 0 011.16-.875l4.21-.55a97.32 97.32 0 00-2.735 4.187l-3.56-.63zm5.848 11.982a.677.677 0 01-.934 0l-2.16-2.16a.661.661 0 010-.934l.947-.947 3.094 3.095-.947.946zm11.896.67a1.48 1.48 0 01-.875 1.16l-2.133.924-.629-3.56a97.358 97.358 0 004.187-2.734l-.55 4.21zm11.38-16.816c-4.092 6.81-15.447 13.605-18.83 15.527a.635.635 0 01-.75-.104l-.854-.854-4.359-4.359-.854-.854a.627.627 0 01-.104-.75c1.92-3.383 8.717-14.738 15.527-18.829 2.638-1.585 9.155-2.12 11.872-2.276a.624.624 0 01.626.666c-.155 2.68-.69 9.195-2.275 11.833z" fill="#fff"/><path d="M28.838 6.512a4.627 4.627 0 00-3.291 1.362 4.655 4.655 0 000 6.578 4.624 4.624 0 003.29 1.362 4.624 4.624 0 003.29-1.362 4.655 4.655 0 000-6.578 4.619 4.619 0 00-3.29-1.362zm2.017 6.666a2.834 2.834 0 01-2.017.835 2.833 2.833 0 01-2.017-.835 2.853 2.853 0 010-4.031 2.834 2.834 0 012.017-.835 2.853 2.853 0 012.017 4.866zM5.279 29.768a4.92 4.92 0 00-3.503 1.45C.014 32.982-.012 38.107.002 39.116A.896.896 0 00.886 40h.124c1.803 0 6.168-.173 7.77-1.775a4.922 4.922 0 001.452-3.503 4.923 4.923 0 00-1.451-3.503 4.922 4.922 0 00-3.503-1.451zm2.236 7.19c-.771.772-3.36 1.166-5.713 1.238.067-2.152.45-4.92 1.241-5.711a3.14 3.14 0 012.236-.926 3.14 3.14 0 012.236.926c.598.597.927 1.391.927 2.236 0 .845-.33 1.64-.927 2.237z" fill="#fff"/></svg>
